static/assets/images/chevron-down.svg

﻿<?xml version="1.0" encoding="utf-8"?>
<svg version="1.1" xmlns:xlink="http://www.w3.org/1999/xlink" width="10px" height="10px" xmlns="http://www.w3.org/2000/svg">
  <g transform="matrix(1 0 0 1 -334 -942 )">
    <path d="M 5 7.74739583333333  C 5.11284722222222 7.74739583333333  5.21050347222222 7.70616319444445  5.29296875 7.62369791666667  L 8.24869791666667 4.66796875  C 8.33116319444444 4.58550347222222  8.37239583333333 4.48784722222222  8.37239583333333 4.375  C 8.37239583333333 4.26215277777778  8.33116319444444 4.16449652777778  8.24869791666667 4.08203125  L 7.58463541666667 3.41796875  C 7.50217013888889 3.33550347222222  7.40451388888889 3.29427083333333  7.29166666666667 3.29427083333333  C 7.17881944444445 3.29427083333333  7.08116319444445 3.33550347222222  6.99869791666667 3.41796875  L 5 5.41666666666667  L 3.00130208333333 3.41796875  C 2.91883680555556 3.33550347222222  2.82118055555556 3.29427083333333  2.70833333333333 3.29427083333333  C 2.59548611111111 3.29427083333333  2.49782986111111 3.33550347222222  2.41536458333333 3.41796875  L 1.75130208333333 4.08203125  C 1.66883680555556 4.16449652777778  1.62760416666667 4.26215277777778  1.62760416666667 4.375  C 1.62760416666667 4.48784722222222  1.66883680555556 4.58550347222222  1.75130208333333 4.66796875  L 4.70703125 7.62369791666667  C 4.78949652777778 7.70616319444445  4.88715277777778 7.74739583333333  5 7.74739583333333  Z M 9.32942708333333 2.490234375  C 9.77647569444444 3.25629340277778  10 4.09288194444444  10 5  C 10 5.90711805555556  9.77647569444444 6.74370659722222  9.32942708333333 7.509765625  C 8.88237847222222 8.27582465277778  8.27582465277778 8.88237847222222  7.509765625 9.32942708333333  C 6.74370659722222 9.77647569444444  5.90711805555556 10  5 10  C 4.09288194444444 10  3.25629340277778 9.77647569444444  2.490234375 9.32942708333333  C 1.72417534722222 8.88237847222222  1.11762152777778 8.27582465277778  0.670572916666667 7.509765625  C 0.223524305555556 6.74370659722222  0 5.90711805555556  0 5  C 0 4.09288194444444  0.223524305555556 3.25629340277778  0.670572916666667 2.490234375  C 1.11762152777778 1.72417534722222  1.72417534722222 1.11762152777778  2.490234375 0.670572916666666  C 3.25629340277778 0.223524305555555  4.09288194444444 0  5 0  C 5.90711805555556 0  6.74370659722222 0.223524305555555  7.509765625 0.670572916666666  C 8.27582465277778 1.11762152777778  8.88237847222222 1.72417534722222  9.32942708333333 2.490234375  Z " fill-rule="nonzero" fill="#c2a0f2" stroke="none" transform="matrix(1 0 0 1 334 942 )" />
  </g>
</svg>

<svg width="10" height="10" xmlns="http://www.w3.org/2000/svg"><path d="M5 7.747a.4.4 0 0 0 .293-.123l2.956-2.956a.4.4 0 0 0 .123-.293.4.4 0 0 0-.123-.293l-.664-.664a.4.4 0 0 0-.293-.124.4.4 0 0 0-.293.124L5 5.417 3.001 3.418a.4.4 0 0 0-.293-.124.4.4 0 0 0-.293.124l-.664.664a.4.4 0 0 0-.123.293.4.4 0 0 0 .123.293l2.956 2.956A.4.4 0 0 0 5 7.747zM9.33 2.49c.446.766.67 1.603.67 2.51 0 .907-.224 1.744-.67 2.51a4.978 4.978 0 0 1-1.82 1.82A4.891 4.891 0 0 1 5 10a4.891 4.891 0 0 1-2.51-.67A4.978 4.978 0 0 1 .67 7.51 4.891 4.891 0 0 1 0 5c0-.907.224-1.744.67-2.51A4.978 4.978 0 0 1 2.49.67 4.891 4.891 0 0 1 5 0c.907 0 1.744.224 2.51.67a4.978 4.978 0 0 1 1.82 1.82z" fill="#c2a0f2"/></svg>
